flags/lk.svg

<svg width="512" height="512" viewBox="0 0 512 512" fill="none" xmlns="http://www.w3.org/2000/svg">
<rect width="512" height="512" fill="var(--flag-palette-yellow, #ffda44)"/>
<path d="M96 32H192V480H96V32Z" fill="var(--flag-palette-gold, #ff9811)"/>
<path d="M512 32H224V480H512V345.036L491.596 322.783H443.363L422.958 345.044V389.566H378.436V367.305H400.697V322.783H300.523V350.609H278.262V297.578C271.432 291.464 267.132 282.583 267.132 272.696V128.001C267.132 109.56 282.082 94.6096 300.523 94.6096V300.523H345.045L360.321 287.792C357.653 281.437 356.175 274.458 356.175 267.132V233.741H322.784V166.959H389.566C389.566 155.829 406.262 144.698 406.262 144.698C406.262 144.698 422.958 155.828 422.958 166.959V233.742C428.709 233.81 436.034 233.777 444.359 233.74C453.958 233.697 464.887 233.649 476.27 233.742C470.686 223.982 467.479 212.401 467.479 200.351C467.479 180.71 475.959 163.052 489.457 150.832L512 133.058V32Z" fill="var(--flag-palette-dark-red, #a2001d)"/>
<path d="M0 32H96V480H0V32Z" fill="var(--flag-palette-green, #6da544)"/>
</svg>

<svg xmlns="http://www.w3.org/2000/svg" width="512" height="512" fill="none"><path fill="var(--flag-palette-yellow, #ffda44)" d="M0 0h512v512H0z"/><path fill="var(--flag-palette-gold, #ff9811)" d="M96 32h96v448H96z"/><path fill="var(--flag-palette-dark-red, #a2001d)" d="M512 32H224v448h288V345l-20.4-22.2h-48.2L423 345v44.6h-44.6v-22.3h22.3v-44.5H300.5v27.8h-22.2v-53a33 33 0 0 1-11.2-24.9V128c0-18.4 15-33.4 33.4-33.4v206H345l15.3-12.8a53 53 0 0 1-4.1-20.7v-33.4h-33.4V167h66.8c0-11.2 16.7-22.3 16.7-22.3S423 155.8 423 167v66.7h53.3a67.5 67.5 0 0 1 13.2-82.9l22.5-17.7z"/><path fill="var(--flag-palette-green, #6da544)" d="M0 32h96v448H0z"/></svg>
